X: 18268
T: Humours Of Quarry Cross, The
R: jig
M: 6/8
K: Gmajor
G3 BAB|def g2 f|eAA BAG|FAG FED|
GFG BAB|def g2 f|eAA BAG|1 FAF G2 F:|2 FAF GBd||
efe edB|def g2 a|bgb agf|egf edB|
efe edB|def g2 a|bgb agf|1 egf eBd:|2 egf edB||

